X:599
T:
S:Nils Nilsson Rotarve i Lye har sjungit den så för samlaren.
R:schottis
O:Gotland, Lye
M:2/4
L:1/16
K:D
A2|d2dA F2A2|d2de f4|gagf e2e2|fgfe d2d2|d2dA F2A2|d2de f4|g3e c2ce|d4
z2::A2|c3d e2c2|d2de f4|d2df d2df|edcB A4|d2dA F2A2|dcde f4|gage c2ce|d4 z2:|

